X:32
M:2/4
L:1/8
K:D
fdec | dBcA | GBAc | "tr"B2E2 | (A/B/c) (B/c/d) | (c/d/e) (d/e/f) | ea (^g/a/b/g/) | (a2 a2) |]

